X:1
T:Gilead (Méhul), LM
T:Arranged from Étienne-Nicolas Méhul (1763-1817)
T:Gilead (Méhul), LM
T:Public Domain
C:Arranged from &#201;tienne-Nicolas M&#233;hul (1763-1817)
Z:Public Domain
%%score ( 1 2 ) ( 3 4 )
L:1/8
M:4/4
K:Bb
V:1 treble 
V:2 treble 
V:3 bass 
V:4 bass 
V:1
 F4 G2 A2 | B6 [DB]2 | [DB]4 [FB]4 | [DB]8 | [DB]4 [Fc]2 [Fc]2 | [Fd]6 [Fd]2 | [GB]4 [Ge]4 | %7
 [Fc]8 | F4 G2 A2 | B6 [DB]2 | [DB]4 [Ge]4 | [Fd]8 | [Gc]4 [Gc]2 [Gc]2 | [^Fd]6 [Fd]2 | %14
 [GB]4 [Ec]4 | [DB]8 |] %16
V:2
 F4 G2 A2 | x8 | x8 | x8 | x8 | x8 | x8 | x8 | F4 G2 A2 | B6 x2 | x8 | x8 | x8 | x8 | x8 | x8 |] %16
V:3
 F,4 G,2 A,2 | B,6 [B,,B,]2 | [B,,B,]4 [B,,D]4 | [B,,B,]8 | [G,B,]4 [F,A,]2 [F,A,]2 | %5
 B,6 [B,,B,]2 | [E,B,]4 [C,C]4 | [F,A,]8 | F,4 G,2 A,2 | B,6 [B,,B,]2 | [B,,B,]4 [B,,B,]4 | %11
 [B,,B,]8 | [E,G,]4 [E,G,]2 [E,G,]2 | [D,A,]6 [D,A,]2 | [G,B,]4 [F,A,]4 | [B,,B,]8 |] %16
V:4
 F,4 G,2 A,2 | B,6 x2 | x8 | x8 | x8 | B,6 x2 | x8 | x8 | F,4 G,2 A,2 | B,6 x2 | x8 | x8 | x8 | %13
 x8 | x8 | x8 |] %16

